src/components/00-materials/images-raw/Dental.svg

<svg width="96" height="96" viewBox="0 0 96 96" fill="none" xmlns="http://www.w3.org/2000/svg">
<path d="M79.86 35.1899C78.7631 38.0198 77.8675 40.9237 77.18 43.8799C76.28 47.9999 75.64 52.3199 75 56.5399C74 64.0899 72.82 71.7599 69.75 78.9199L69.63 79.0499C68.73 81.0499 67.96 82.7499 65.53 84.1599C64.9009 84.5377 64.1945 84.7682 63.4636 84.834C62.7327 84.8998 61.9965 84.7993 61.31 84.5399C60.511 84.2367 59.7818 83.7747 59.1665 83.1817C58.5512 82.5887 58.0625 81.8771 57.73 81.0899C56.73 78.5399 57.09 75.2099 57.48 72.2699C57.61 71.1199 57.73 69.9699 57.86 68.9399V67.7899C58.12 62.0399 58.5 54.1099 50.96 51.9399C49.0311 51.4197 46.9989 51.4197 45.07 51.9399C37.53 54.1099 37.91 62.0399 38.17 67.7899V68.9399C38.1797 70.0601 38.3071 71.1763 38.55 72.2699C38.94 75.2099 39.32 78.5399 38.3 81.0899C37.9675 81.8771 37.4788 82.5887 36.8635 83.1817C36.2482 83.7747 35.519 84.2367 34.72 84.5399C34.0335 84.7993 33.2973 84.8998 32.5664 84.834C31.8355 84.7682 31.1291 84.5377 30.5 84.1599C27.94 82.7499 27.3 81.0899 26.41 79.0499L26.28 78.7899C23.09 71.6299 22.07 63.9999 21 56.4099C20.37 52.1899 19.85 47.9699 18.83 43.8799C18.244 40.8972 17.3457 37.9845 16.15 35.1899C13.72 29.4299 13.97 22.7799 16.53 18.0499C18.96 13.7099 24.07 11.1499 30.47 11.1499C33.2144 11.2514 35.948 11.5488 38.65 12.0399C41.6094 12.6594 44.6265 12.9611 47.65 12.9399C50.34 12.8099 53.02 12.4299 55.84 12.0399C59.0478 11.4849 62.2948 11.1873 65.55 11.1499C71.95 11.1499 77.06 13.7099 79.49 18.0499C82 22.7799 82.17 29.4299 79.86 35.1899Z" stroke="#00008F" stroke-width="2" stroke-miterlimit="10"/>
<path d="M57.45 27.6599H52.05V22.2599C52.05 22.1711 52.0324 22.0831 51.9981 22.0012C51.9638 21.9192 51.9135 21.8449 51.8503 21.7826C51.787 21.7202 51.7119 21.6711 51.6295 21.638C51.547 21.6049 51.4588 21.5886 51.37 21.5899H44.63C44.5412 21.5886 44.453 21.6049 44.3705 21.638C44.2881 21.6711 44.2131 21.7202 44.1498 21.7826C44.0865 21.8449 44.0363 21.9192 44.002 22.0012C43.9677 22.0831 43.95 22.1711 43.95 22.2599V27.6599H38.55C38.4612 27.6599 38.3732 27.6776 38.2913 27.7119C38.2093 27.7462 38.135 27.7964 38.0727 27.8597C38.0103 27.923 37.9612 27.998 37.9281 28.0804C37.895 28.1629 37.8787 28.2511 37.88 28.3399V35.0899C37.88 35.1779 37.8973 35.265 37.931 35.3463C37.9647 35.4276 38.014 35.5015 38.0763 35.5637C38.1385 35.6259 38.2123 35.6752 38.2936 35.7089C38.3749 35.7426 38.462 35.7599 38.55 35.7599H44V41.1599C44 41.2488 44.0177 41.3367 44.052 41.4186C44.0863 41.5006 44.1365 41.5749 44.1998 41.6373C44.2631 41.6996 44.3381 41.7487 44.4205 41.7818C44.503 41.8149 44.5912 41.8312 44.68 41.8299H51.42C51.5088 41.8312 51.597 41.8149 51.6795 41.7818C51.7619 41.7487 51.837 41.6996 51.9003 41.6373C51.9635 41.5749 52.0138 41.5006 52.0481 41.4186C52.0824 41.3367 52.1 41.2488 52.1 41.1599V35.7599H57.5C57.6777 35.7599 57.8481 35.6893 57.9738 35.5637C58.0994 35.438 58.17 35.2676 58.17 35.0899V28.3399C58.1717 28.2467 58.1539 28.1542 58.1177 28.0683C58.0816 27.9824 58.0279 27.9049 57.9602 27.8409C57.8924 27.7769 57.812 27.7278 57.7242 27.6966C57.6363 27.6654 57.543 27.6529 57.45 27.6599V27.6599Z" stroke="#00008F" stroke-width="2" stroke-linecap="round" stroke-linejoin="round"/>
</svg>

<svg width="96" height="96" viewBox="0 0 96 96" fill="none" xmlns="http://www.w3.org/2000/svg"><path d="M79.86 35.19a64.421 64.421 0 00-2.68 8.69c-.9 4.12-1.54 8.44-2.18 12.66-1 7.55-2.18 15.22-5.25 22.38l-.12.13c-.9 2-1.67 3.7-4.1 5.11a4.86 4.86 0 01-4.22.38 6.32 6.32 0 01-3.58-3.45c-1-2.55-.64-5.88-.25-8.82.13-1.15.25-2.3.38-3.33v-1.15c.26-5.75.64-13.68-6.9-15.85a11.31 11.31 0 00-5.89 0c-7.54 2.17-7.16 10.1-6.9 15.85v1.15c.01 1.12.137 2.236.38 3.33.39 2.94.77 6.27-.25 8.82a6.32 6.32 0 01-3.58 3.45 4.86 4.86 0 01-4.22-.38c-2.56-1.41-3.2-3.07-4.09-5.11l-.13-.26C23.09 71.63 22.07 64 21 56.41c-.63-4.22-1.15-8.44-2.17-12.53a43.323 43.323 0 00-2.68-8.69c-2.43-5.76-2.18-12.41.38-17.14 2.43-4.34 7.54-6.9 13.94-6.9a57.66 57.66 0 018.18.89c2.96.62 5.977.921 9 .9 2.69-.13 5.37-.51 8.19-.9a61.071 61.071 0 019.71-.89c6.4 0 11.51 2.56 13.94 6.9 2.51 4.73 2.68 11.38.37 17.14z" stroke="#00008F" stroke-width="2" stroke-miterlimit="10"/><path d="M57.45 27.66h-5.4v-5.4a.67.67 0 00-.68-.67h-6.74a.67.67 0 00-.68.67v5.4h-5.4a.67.67 0 00-.67.68v6.75a.67.67 0 00.67.67H44v5.4a.67.67 0 00.68.67h6.74a.67.67 0 00.68-.67v-5.4h5.4a.67.67 0 00.67-.67v-6.75a.668.668 0 00-.72-.68v0z" stroke="#00008F" stroke-width="2" stroke-linecap="round" stroke-linejoin="round"/></svg>
